src/rounded/icons/fi-rr-list-check.svg

<svg id="Layer_1" height="512" viewBox="0 0 24 24" width="512" xmlns="http://www.w3.org/2000/svg" data-name="Layer 1"><path d="m4 6a2.982 2.982 0 0 1 -2.122-.879l-1.544-1.374a1 1 0 0 1 1.332-1.494l1.585 1.414a1 1 0 0 0 1.456.04l3.604-3.431a1 1 0 0 1 1.378 1.448l-3.589 3.414a2.964 2.964 0 0 1 -2.1.862zm20-2a1 1 0 0 0 -1-1h-10a1 1 0 0 0 0 2h10a1 1 0 0 0 1-1zm-17.9 9.138 3.589-3.414a1 1 0 1 0 -1.378-1.448l-3.6 3.431a1.023 1.023 0 0 1 -1.414 0l-1.59-1.585a1 1 0 0 0 -1.414 1.414l1.585 1.585a3 3 0 0 0 4.226.017zm17.9-1.138a1 1 0 0 0 -1-1h-10a1 1 0 0 0 0 2h10a1 1 0 0 0 1-1zm-17.9 9.138 3.585-3.414a1 1 0 1 0 -1.378-1.448l-3.6 3.431a1 1 0 0 1 -1.456-.04l-1.585-1.414a1 1 0 0 0 -1.332 1.494l1.544 1.374a3 3 0 0 0 4.226.017zm17.9-1.138a1 1 0 0 0 -1-1h-10a1 1 0 0 0 0 2h10a1 1 0 0 0 1-1z"/></svg>

<svg id="Layer_1" data-name="Layer 1" xmlns="http://www.w3.org/2000/svg" viewBox="0 0 24 24"><path d="M4,6a2.982,2.982,0,0,1-2.122-.879L.334,3.747A1,1,0,0,1,1.666,2.253L3.251,3.667a1,1,0,0,0,1.456.04L8.311.276A1,1,0,0,1,9.689,1.724L6.1,5.138A2.964,2.964,0,0,1,4,6ZM24,4a1,1,0,0,0-1-1H13a1,1,0,0,0,0,2H23A1,1,0,0,0,24,4ZM6.1,13.138,9.689,9.724A1,1,0,1,0,8.311,8.276l-3.6,3.431a1.023,1.023,0,0,1-1.414,0L1.707,10.122A1,1,0,0,0,.293,11.536l1.585,1.585a3,3,0,0,0,4.226.017ZM24,12a1,1,0,0,0-1-1H13a1,1,0,0,0,0,2H23A1,1,0,0,0,24,12ZM6.1,21.138l3.585-3.414a1,1,0,1,0-1.378-1.448l-3.6,3.431a1,1,0,0,1-1.456-.04L1.666,18.253A1,1,0,0,0,.334,19.747l1.544,1.374a3,3,0,0,0,4.226.017ZM24,20a1,1,0,0,0-1-1H13a1,1,0,0,0,0,2H23A1,1,0,0,0,24,20Z"/></svg>
